assets/icons/file_icons/pyproject.svg

<?xml version="1.0" encoding="UTF-8"?><svg id="Layer_75" xmlns="http://www.w3.org/2000/svg" xmlns:xlink="http://www.w3.org/1999/xlink" viewBox="0 0 14 14"><defs><style>.cls-1{fill:#005468;}.cls-2{opacity:.22;}.cls-3{fill:#71c6ff;}.cls-4{fill:#005369;}.cls-5{fill:none;}.cls-6{fill:#ffd028;}.cls-7{opacity:.3;}</style><clipPath id="clippath"><path class="cls-5" d="m-91.5539,11.2769l-4.998,2.499c-.2821.141-.6141.141-.8962,0l-4.998-2.499c-.3395-.1697-.5539-.5167-.5539-.8962v-5.7615c0-.3795.2144-.7265.5539-.8962l4.998-2.499c.2821-.141.6141-.141.8962,0l4.998,2.499c.3395.1697.5539.5167.5539.8962v5.7615c0,.3795-.2144.7265-.5539.8962Z"/></clipPath></defs><path class="cls-3" d="m10.9918,8v-3.0327H.9864C.4341,4.9673-.0136,5.4151-.0136,5.9673v7.0327c0,.5523.4477,1,1,1h1.0299v-3.4963c0-.8304.6732-1.5037,1.5037-1.5037h6.4719c.5523,0,1-.4477,1-1Z"/><path class="cls-7" d="m-.0136,13c0,.5523.4477,1,1,1h1.0299v-3.4963C1,14-.0136,13-.0136,13Z"/><path class="cls-6" d="m12,5v3.4938c0,.8319-.6744,1.5062-1.5062,1.5062h-6.4666c-.5523,0-1,.4477-1,1v2.9946h9.9728c.5523,0,1-.4477,1-1v-6.9946c0-.5523-.4477-1-1-1h-1Z"/><path class="cls-2" d="m3.0272,13.9946h9.9728c.5523,0,1-.4477,1-1v-6.9946c0,8-10.9728,7.9946-10.9728,7.9946Z"/><polygon class="cls-3" points="4 2 4 4 5 4 5 3 9 3 9 4 10 4 10 2 4 2"/><rect class="cls-4" x="4" y="4" width="1" height="1"/><rect class="cls-1" x="9" y="4" width="1" height="1"/><circle cx="8" cy="7" r="1"/><circle cx="6" cy="12" r="1"/></svg>

<svg xmlns="http://www.w3.org/2000/svg" id="Layer_75" viewBox="0 0 14 14"><defs><clipPath id="clippath"/><style>.cls-4{fill:#71c6ff}</style></defs><path d="M10.992 8V4.967H.986a1 1 0 0 0-1 1V13a1 1 0 0 0 1 1h1.03v-3.496C2.016 9.674 2.69 9 3.52 9h6.472a1 1 0 0 0 1-1" class="cls-4"/><path d="M-.014 13a1 1 0 0 0 1 1h1.03v-3.496C1 14-.014 13-.014 13" opacity=".3"/><path fill="#ffd028" d="M12 5v3.494C12 9.326 11.326 10 10.494 10H4.027a1 1 0 0 0-1 1v2.995H13a1 1 0 0 0 1-1V6a1 1 0 0 0-1-1z"/><path d="M3.027 13.995H13a1 1 0 0 0 1-1V6c0 8-10.973 7.995-10.973 7.995" opacity=".22"/><path d="M4 2v2h1V3h4v1h1V2z" class="cls-4"/><path fill="#005369" d="M4 4h1v1H4z"/><path fill="#005468" d="M9 4h1v1H9z"/><circle cx="8" cy="7" r="1"/><circle cx="6" cy="12" r="1"/></svg>
